X: 19137
T: Irish Washerwoman, The
R: jig
M: 6/8
K: Gmajor
|:AGE D2D|BAB dcB|cAA E2A|cGc edc|
AGE D3|BAB dcB|cec A2A|AGF G3:|
|:g3 Bcd|g2g bag|fed A2d|f3 agf|
efg d3|cde B3|cec AcF|AGF G3:|

